X:1
T:Foel Fras, LM
T:Foel Fras, LM
T:Harry Alfred Harding (1855-1930)
T:Public Domain Courtesy of the Cyber Hymnal™
C:Harry Alfred Harding (1855-1930)
Z:Public Domain
Z:Courtesy of the Cyber Hymnal™
%%score ( 1 2 ) ( 3 4 )
L:1/8
M:3/4
K:G
V:1 treble 
V:2 treble 
V:3 bass 
V:4 bass 
V:1
 D2 [DB]2 [CA]2 | [B,G]2 [CA]2 [DB]2 | [Cc]4 [DA]2 | [DB]6 | [Gd]2 [Ge]2 [Fd]2 | d2 B2 [DG]2 | %6
 B2 A2 [=CE]2 | [DF]6 | D2 [DB]2 [CA]2 | [B,G]2 [CA]2 [DB]2 | c4 [=Fd]2 | [Ee]6 | %12
 [Ee]2 [Ed]2 [EB]2 | [=Fd]2 [Ec]2 [EA]2 | G4 [FA]2 | G6 |] %16
V:2
 D2 x4 | x6 | x6 | x6 | x6 | G4 x2 | ^C4 x2 | x6 | D2 x4 | x6 | C2 G2 x2 | x6 | x6 | x6 | %14
 D2 E2 x2 | G6 |] %16
V:3
 [D,F,]2 [D,E,]2 [D,F,]2 | G,4 [=F,G,]2 | [E,G,]4 [F,A,]2 | [G,D]6 | [B,D]2 [^A,^C]2 [=A,=C]2 | %5
 B,2 D2 [G,B,]2 | [E,G,]4 [E,G,]2 | [D,A,]6 | [D,F,]2 [D,E,]2 [D,F,]2 | G,4 [=F,G,]2 | %10
 [E,G,]4 [B,,G,]2 | [C,G,]6 | [E,^G,]2 [E,G,]2 [E,G,]2 | ^G,2 A,2 [C,A,]2 | [D,B,]4 [D,C]2 | %15
 [G,B,]6 |] %16
V:4
 x6 | G,2 =F,2 x2 | x6 | x6 | x6 | G,4 x2 | x6 | x6 | x6 | G,2 =F,2 x2 | x6 | x6 | x6 | A,,4 x2 | %14
 x6 | x6 |] %16

